svgs/sharp-light/person-rifle.svg

<svg xmlns="http://www.w3.org/2000/svg" viewBox="0 0 576 512"><!--! Font Awesome Pro 6.6.0 by @fontawesome - https://fontawesome.com License - https://fontawesome.com/license (Commercial License) Copyright 2024 Fonticons, Inc. --><path d="M328 192l8 0 0 320-32 0 0-288-128 0 0 288-32 0 0-248.8L62.5 438.7l-29-13.5 104-224 4.3-9.3 10.2 0 176 0zM288 80a48 48 0 1 0 -96 0 48 48 0 1 0 96 0zM160 80a80 80 0 1 1 160 0A80 80 0 1 1 160 80zM532.2 307.9L480 325.3l0 26.7 3.2 16 6.4 0 22.4 0 32 0 0 32-21.8 0L512 400l-22.4 0 6.4 32 9.6 48 6.4 32-32.6 0L416 512l-32 0 0-32 0-48 0-32-16 0 0-32 0-144 0-32 16 0 0-32 0-32 32 0 0-32 0-32 0-32-16 0 0-32 16 0 16 0 16 0 0 32 0 64 0 32 32 0 0 32 0 32 0 63 0 25 0 8 32-8 0-56 0-32 32 0 0 32 0 56 0 24-11.8 3.9zm-83.6 50.3l-.6-3.1 0-3.2 0-23 0-3.7 0-23.1 0-14.3 0-128-32 0 0 32 0 32-16 0 0 144 16 0 0 32 0 80 57 0-14.7-73.7L457 400l-5.1-25.7-1.3-6.3-1.9-9.7z"/></svg>

<svg xmlns="http://www.w3.org/2000/svg" viewBox="0 0 576 512"><!--! Font Awesome Pro 6.4.0 by @fontawesome - https://fontawesome.com License - https://fontawesome.com/license (Commercial License) Copyright 2023 Fonticons, Inc. --><path d="M328 192h8V512H304V224H176V512H144V263.2L62.5 438.7l-29-13.5 104-224 4.3-9.3H152 328zM288 80a48 48 0 1 0 -96 0 48 48 0 1 0 96 0zM160 80a80 80 0 1 1 160 0A80 80 0 1 1 160 80zM532.2 307.9L480 325.3V352l3.2 16h6.4H512h32v32H522.2 512 489.6l6.4 32 9.6 48 6.4 32H479.4 416 384V480 432 400H368V368 224 192h16V160 128h32V96 64 32H400V0h16 16 16V32 96v32h32v32 32 63 25 8l32-8V224 192h32v32 56 24l-11.8 3.9zm-83.6 50.3l-.6-3.1V352 329v-3.7V302.3 288 160H416v32 32H400V368h16v32 80h57l-14.7-73.7L457 400l-5.1-25.7-1.3-6.3-1.9-9.7z"/></svg>
